resources/icons/svg.svg

<svg xmlns="http://www.w3.org/2000/svg" xmlns:xlink="http://www.w3.org/1999/xlink" width="16" height="16" viewBox="0 0 16 16"><defs><path d="M5.482 31.319A18.27 18.27 0 01.109 18.358C.109 8.232 8.322.024 18.443.024c10.126 0 18.339 8.208 18.339 18.334h-10.74c0-4.194-3.404-7.593-7.599-7.593a7.592 7.592 0 00-5.373 12.956h.005c1.375 1.38 2.52 1.779 5.368 2.231 5.066.527 9.648 2.054 12.966 5.372a18.275 18.275 0 015.373 12.962c0 10.126-8.213 18.339-18.339 18.339C8.322 62.625.109 54.412.109 44.286H10.85c0 4.194 3.399 7.598 7.593 7.598a7.601 7.601 0 007.599-7.598 7.574 7.574 0 00-2.221-5.363h-.005c-1.375-1.375-3.348-1.849-5.373-2.226v-.005c-4.91-.753-9.643-2.054-12.961-5.373zM73.452.024l-12.97 62.601h-10.74L36.782.024h10.74l7.6 36.663L62.712.024h10.74zm18.34 25.928h18.334v18.334h.005c0 10.127-8.213 18.34-18.339 18.34-10.127 0-18.334-8.213-18.334-18.34V18.359h-.005C73.453 8.233 81.665.025 91.792.025c10.121 0 18.334 8.208 18.334 18.334H99.385a7.599 7.599 0 00-7.593-7.594 7.596 7.596 0 00-7.594 7.594v25.927a7.593 7.593 0 0015.187.005v-7.593h-7.593V25.952z" transform="matrix(2 0 0 2 40 158)" id="d" fill="#fff"/></defs><path id="c" d="M.594 8.066h15.011v5.364c0 1.261-.955 2.227-2.201 2.227H2.795c-1.246 0-2.2-.966-2.2-2.227z" fill="#000" stroke-width=".053"/><g transform="matrix(.05304 0 0 .05365 .143 .018)" stroke="#000" stroke-width="38.009"><g id="b" transform="translate(150 150)"><path id="a" d="M-84.149-15.851a22.417 22.417 0 100 31.702H84.15a22.417 22.417 0 100-31.702z" fill="#ffb13b"/><use xlink:href="#a" transform="rotate(45)" width="100%" height="100%"/><use xlink:href="#a" transform="rotate(90)" width="100%" height="100%"/><use xlink:href="#a" transform="rotate(135)" width="100%" height="100%"/></g></g><use xlink:href="#b" transform="matrix(.05304 0 0 .05365 .143 .018)" width="100%" height="100%"/><use xlink:href="#c" width="100%" height="100%" opacity=".85"/><use xlink:href="#d" transform="matrix(.05304 0 0 .05365 .143 .018)" width="100%" height="100%"/></svg>

<?xml version="1.0" encoding="UTF-8" standalone="no"?>
<svg
   xmlns:dc="http://purl.org/dc/elements/1.1/"
   xmlns:cc="http://creativecommons.org/ns#"
   xmlns:rdf="http://www.w3.org/1999/02/22-rdf-syntax-ns#"
   xmlns:svg="http://www.w3.org/2000/svg"
   xmlns="http://www.w3.org/2000/svg"
   xmlns:xlink="http://www.w3.org/1999/xlink"
   xmlns:sodipodi="http://sodipodi.sourceforge.net/DTD/sodipodi-0.dtd"
   xmlns:inkscape="http://www.inkscape.org/namespaces/inkscape"
   width="16"
   height="16"
   viewBox="0 0 16 16"
   version="1.1"
   id="svg30"
   sodipodi:docname="svg.svg"
   inkscape:version="0.92.4 (5da689c313, 2019-01-14)">
  <sodipodi:namedview
     pagecolor="#ffffff"
     bordercolor="#666666"
     borderopacity="1"
     objecttolerance="10"
     gridtolerance="10"
     guidetolerance="10"
     inkscape:pageopacity="0"
     inkscape:pageshadow="2"
     inkscape:window-width="1920"
     inkscape:window-height="1001"
     id="namedview32"
     showgrid="false"
     inkscape:zoom="20.492779"
     inkscape:cx="8"
     inkscape:cy="6.1506425"
     inkscape:window-x="-9"
     inkscape:window-y="-9"
     inkscape:window-maximized="1"
     inkscape:current-layer="svg30" />
  <title
     id="title2">SVG Logo</title>
  <desc
     id="desc4">Designed for the SVG Logo Contest in 2006 by Harvey Rayner, and adopted by W3C in 2009. It is available under the Creative Commons license for those who have an SVG product or who are using SVG on their site.</desc>
  <metadata
     id="license">
    <rdf:RDF>
      <cc:Work
         rdf:about="">
        <dc:title>SVG Logo</dc:title>
        <dc:date>14-08-2009</dc:date>
        <dc:creator>
          <cc:Agent>
            <dc:title>W3C</dc:title>
          </cc:Agent>
          <cc:Agent>
            <dc:title>Harvey Rayner, designer</dc:title>
          </cc:Agent>
        </dc:creator>
        <dc:description>See document description</dc:description>
        <cc:license
           rdf:resource="http://creativecommons.org/licenses/by-nc-sa/2.5/" />
        <dc:format>image/svg+xml</dc:format>
        <dc:type
           rdf:resource="http://purl.org/dc/dcmitype/StillImage" />
      </cc:Work>
      <cc:License
         rdf:about="http://creativecommons.org/licenses/by-nc-sa/2.5/">
        <cc:permits
           rdf:resource="http://web.resource.org/cc/Reproduction" />
        <cc:permits
           rdf:resource="http://web.resource.org/cc/Distribution" />
        <cc:requires
           rdf:resource="http://web.resource.org/cc/Notice" />
        <cc:requires
           rdf:resource="http://web.resource.org/cc/Attribution" />
        <cc:prohibits
           rdf:resource="http://web.resource.org/cc/CommercialUse" />
        <cc:permits
           rdf:resource="http://web.resource.org/cc/DerivativeWorks" />
        <cc:requires
           rdf:resource="http://web.resource.org/cc/ShareAlike" />
      </cc:License>
    </rdf:RDF>
  </metadata>
  <defs
     id="defs11">
    <g
       id="SVG"
       fill="#ffffff"
       transform="scale(2) translate(20,79)">
      <path
         id="S"
         d="M 5.482,31.319 C2.163,28.001 0.109,23.419 0.109,18.358 C0.109,8.232 8.322,0.024 18.443,0.024 C28.569,0.024 36.782,8.232 36.782,18.358 L26.042,18.358 C26.042,14.164 22.638,10.765 18.443,10.765 C14.249,10.765 10.850,14.164 10.850,18.358 C10.850,20.453 11.701,22.351 13.070,23.721 L13.075,23.721 C14.450,25.101 15.595,25.500 18.443,25.952 L18.443,25.952 C23.509,26.479 28.091,28.006 31.409,31.324 L31.409,31.324 C34.728,34.643 36.782,39.225 36.782,44.286 C36.782,54.412 28.569,62.625 18.443,62.625 C8.322,62.625 0.109,54.412 0.109,44.286 L10.850,44.286 C10.850,48.480 14.249,51.884 18.443,51.884 C22.638,51.884 26.042,48.480 26.042,44.286 C26.042,42.191 25.191,40.298 23.821,38.923 L23.816,38.923 C22.441,37.548 20.468,37.074 18.443,36.697 L18.443,36.692 C13.533,35.939 8.800,34.638 5.482,31.319 L5.482,31.319 L5.482,31.319 Z" />
      <path
         id="V"
         d="M 73.452,0.024 L60.482,62.625 L49.742,62.625 L36.782,0.024 L47.522,0.024 L55.122,36.687 L62.712,0.024 L73.452,0.024 Z" />
      <path
         id="G"
         d="M 91.792,25.952 L110.126,25.952 L110.126,44.286 L110.131,44.286 C110.131,54.413 101.918,62.626 91.792,62.626 C81.665,62.626 73.458,54.413 73.458,44.286 L73.458,44.286 L73.458,18.359 L73.453,18.359 C73.453,8.233 81.665,0.025 91.792,0.025 C101.913,0.025 110.126,8.233 110.126,18.359 L99.385,18.359 C99.385,14.169 95.981,10.765 91.792,10.765 C87.597,10.765 84.198,14.169 84.198,18.359 L84.198,44.286 L84.198,44.286 C84.198,48.481 87.597,51.880 91.792,51.880 C95.981,51.880 99.380,48.481 99.385,44.291 L99.385,44.286 L99.385,36.698 L91.792,36.698 L91.792,25.952 L91.792,25.952 Z" />
    </g>
  </defs>
  <path
     id="base"
     d="M 0.59416106,8.0655799 H 15.605117 v 5.3647461 c 0,1.260715 -0.954761,2.22637 -2.201253,2.22637 H 2.7954146 c -1.246493,0 -2.20125354,-0.965655 -2.20125354,-2.22637 z"
     inkscape:connector-curvature="0"
     style="fill:#000000;stroke-width:0.053344" />
  <g
     id="g22"
     transform="matrix(0.05304224,0,0,0.05364746,0.14330191,0.01846005)"
     style="stroke:#000000;stroke-width:38.00859833">
    <g
       id="svgstar"
       transform="translate(150,150)">
      <path
         id="svgbar"
         d="m -84.1487,-15.8513 a 22.4171,22.4171 0 1 0 0,31.7026 H 84.1487 a 22.4171,22.4171 0 1 0 0,-31.7026 z"
         inkscape:connector-curvature="0"
         style="fill:#ffb13b" />
      <use
         xlink:href="#svgbar"
         transform="rotate(45)"
         id="use15"
         x="0"
         y="0"
         width="100%"
         height="100%" />
      <use
         xlink:href="#svgbar"
         transform="rotate(90)"
         id="use17"
         x="0"
         y="0"
         width="100%"
         height="100%" />
      <use
         xlink:href="#svgbar"
         transform="rotate(135)"
         id="use19"
         x="0"
         y="0"
         width="100%"
         height="100%" />
    </g>
  </g>
  <use
     xlink:href="#svgstar"
     id="use24"
     transform="matrix(0.05304224,0,0,0.05364746,0.14330191,0.01846005)"
     x="0"
     y="0"
     width="100%"
     height="100%" />
  <use
     xlink:href="#base"
     id="use26"
     style="opacity:0.85"
     x="0"
     y="0"
     width="100%"
     height="100%" />
  <use
     xlink:href="#SVG"
     id="use28"
     transform="matrix(0.05304224,0,0,0.05364746,0.14330191,0.01846005)"
     x="0"
     y="0"
     width="100%"
     height="100%" />
</svg>
